X:469
T:Lady Shaftesbury’s Fancy. RH.469
R:march
S:Rev.R.Harrison’s MS,c1815,Cumbria
N:I halved the first two notes, and dotted the last. PJH.
O:England
A:Temple Sowerby,Cumbria
Z:vmp.Simon Wilson. Review PJH, 2008.
M:2/4
L:1/8
Q:1/4=120
K:C
e/d/|cGEG|c>efa|gedc|Bdde|\
c>GEG|c>efa|g>ede|c3:|!
|:g|c’bag|c’2fa|g>edc|Bddg|\
c’bag|c’2fa|g>ede|c3g|!
c’bag|g/f/g/a/ b/a/b/c’/|d’dde|d>efa|\
gage|d>cde|c/d/e/d/ cA|c3:|

